( This file was created automatically using CamBam )
( http://www.brusselsprout.org/CAMBAM )
( 2/5/2024 1:27:08 PM )
( T0 : 3 )
G21
G90
G64
G00 Z1.5
( MOPProfile_2 )
( T0 : 3 )
M06 T0
M03
G00 X-32 Y62.5
G01 F250 Z-1
G01 F500 X32
G02 Y45.5 I0 J-8.5
G01 X-32
G02 Y62.5 I0 J8.5
G01 F250 Z-2
G01 F500 X32
G02 Y45.5 I0 J-8.5
G01 X-32
G02 Y62.5 I0 J8.5
G01 F250 Z-3
G01 F500 X32
G02 Y45.5 I0 J-8.5
G01 X-32
G02 Y62.5 I0 J8.5
G00 Z1.5
G00 X9.5 Y0
G01 F250 Z-1
G02 F500 X-4.75 Y-8.227241 I-9.5 J0
G02 Y8.227241 I4.75 J8.227241
G02 X9.5 Y0 I4.75 J-8.227241
G01 F250 Z-2
G02 F500 X-4.75 Y-8.227241 I-9.5 J0
G02 Y8.227241 I4.75 J8.227241
G02 X9.5 Y0 I4.75 J-8.227241
G01 F250 Z-3
G02 F500 X-4.75 Y-8.227241 I-9.5 J0
G02 Y8.227241 I4.75 J8.227241
G02 X9.5 Y0 I4.75 J-8.227241
( MOPProfile_3 )
G00 Z1.5
G00 X32 Y32.5
G01 F250 Z-1
G03 F500 Y75.5 I0 J21.5
G01 X-32
G03 Y32.5 I0 J-21.5
G03 X-31.824738 Y32.510274 I0 J1.5
G02 X-15.091356 Y12.349128 I1.824738 J-15.510274
G03 X15.091356 I15.091356 J-12.349128
G02 X31.824738 Y32.510274 I14.908644 J4.650872
G03 X32 Y32.5 I0.175262 J1.489726
G01 F250 Z-2
G03 F500 Y75.5 I0 J21.5
G01 X-32
G03 Y32.5 I0 J-21.5
G03 X-31.824738 Y32.510274 I0 J1.5
G02 X-15.091356 Y12.349128 I1.824738 J-15.510274
G03 X15.091356 I15.091356 J-12.349128
G02 X31.824738 Y32.510274 I14.908644 J4.650872
G03 X32 Y32.5 I0.175262 J1.489726
G01 F250 Z-3
G03 F500 Y75.5 I0 J21.5
G01 X-32
G03 Y32.5 I0 J-21.5
G03 X-31.824738 Y32.510274 I0 J1.5
G02 X-15.091356 Y12.349128 I1.824738 J-15.510274
G03 X15.091356 I15.091356 J-12.349128
G02 X31.824738 Y32.510274 I14.908644 J4.650872
G03 X32 Y32.5 I0.175262 J1.489726
G00 Z1.5
M05
M30
